ui/public/starknet_logo_with_outline.svg

<svg width="158" height="158" viewBox="0 0 158 158" fill="none" xmlns="http://www.w3.org/2000/svg">
<path d="M2 78.9988C2 121.525 36.4731 155.998 78.9988 155.998C121.525 155.998 156 121.524 156 78.9988C156 36.4732 121.525 2 78.9988 2C36.4731 2 2 36.4731 2 78.9988Z" fill="#0C0C4F" stroke="#EC796B" stroke-width="4"/>
<path fill-rule="evenodd" clip-rule="evenodd" d="M44.1542 60.3876L46.1043 54.3628C46.5007 53.1374 47.4678 52.1839 48.6977 51.8079L54.752 49.9461C55.59 49.6901 55.5968 48.5078 54.7656 48.2383L48.7385 46.2881C47.5154 45.8918 46.5618 44.9246 46.1836 43.6947L44.324 37.6405C44.0681 36.8047 42.8858 36.7956 42.6162 37.6291L40.6661 43.654C40.2697 44.877 39.3026 45.8306 38.0727 46.2089L32.0184 48.0684C31.1804 48.3266 31.1713 49.5067 32.0048 49.7762L38.0319 51.7263C39.255 52.1227 40.2086 53.0921 40.5868 54.322L42.4464 60.374C42.7023 61.212 43.8846 61.2211 44.1542 60.3876Z" fill="#FAFAFA"/>
<path fill-rule="evenodd" clip-rule="evenodd" d="M139.848 56.881C137.352 54.09 133.457 52.5186 129.67 51.8742C125.853 51.2553 121.85 51.3127 118.082 51.9822C110.457 53.272 103.53 56.4292 97.4881 60.3241C94.3506 62.2356 91.675 64.4474 88.903 66.7C87.5674 67.8392 86.3497 69.0524 85.0815 70.2482L81.6163 73.696C77.851 77.6317 74.1398 81.2165 70.549 84.1878C66.9437 87.1454 63.573 89.3917 60.2512 90.9604C56.9315 92.5372 53.3794 93.4645 48.7495 93.6129C44.1603 93.7748 38.7307 92.9465 32.9229 91.5794C27.0839 90.2183 20.9523 88.2782 14.1004 86.6088C16.4912 93.2414 20.0914 99.1027 24.7137 104.461C29.3902 109.726 35.2297 114.524 42.7314 117.68C50.1247 120.906 59.4157 122.064 68.1031 120.317C76.8135 118.64 84.4573 114.61 90.6359 109.948C96.8304 105.239 101.842 99.8748 106.067 94.298C107.233 92.7572 107.85 91.8949 108.694 90.6906L111.027 87.2351C112.648 85.0977 114.124 82.6641 115.728 80.5464C118.874 76.1112 121.976 71.6811 125.58 67.5997C127.394 65.5296 129.307 63.5495 131.565 61.6466C132.691 60.7178 133.908 59.8088 135.256 58.99C136.624 58.1068 138.069 57.4155 139.848 56.881Z" fill="#EC796B"/>
<path fill-rule="evenodd" clip-rule="evenodd" d="M139.848 56.8808C137.167 50.1148 132.182 44.4194 125.491 40.2167C118.841 36.0601 109.605 33.9389 100.452 35.7471C95.9307 36.6216 91.5501 38.3052 87.7059 40.5472C83.8791 42.7803 80.4499 45.4685 77.4812 48.3524C75.9992 49.7992 74.654 51.3084 73.3176 52.8262L69.8538 57.2423L64.5039 64.3512C57.6836 73.4976 50.3391 84.2166 38.2863 87.3927C26.454 90.5108 21.3221 87.7493 14.1004 86.6085C15.4209 90.0176 17.0565 93.3284 19.2739 96.2409C21.45 99.2124 24.0204 102.003 27.216 104.396C28.8309 105.545 30.5359 106.679 32.4295 107.641C34.3146 108.57 36.3474 109.388 38.5172 110.003C42.8332 111.186 47.6923 111.601 52.397 110.964C57.1039 110.336 61.6029 108.845 65.5355 106.864C69.4971 104.901 72.9481 102.511 76.0296 99.9891C82.1551 94.9021 86.9197 89.2815 90.9444 83.6C92.9688 80.7594 94.8064 77.8652 96.5059 74.9702L98.5062 71.5236C99.1177 70.5161 99.7362 69.5024 100.364 68.5584C102.899 64.7654 105.378 61.7241 108.389 59.4413C111.358 57.0995 115.493 55.3693 121.018 54.9674C126.52 54.5606 132.872 55.312 139.848 56.8808Z" fill="#FAFAFA"/>
<path fill-rule="evenodd" clip-rule="evenodd" d="M110.081 113.097C110.081 118.067 114.112 122.097 119.081 122.097C124.051 122.097 128.076 118.067 128.076 113.097C128.076 108.128 124.051 104.097 119.081 104.097C114.112 104.097 110.081 108.128 110.081 113.097Z" fill="#EC796B"/>
</svg>

<svg xmlns="http://www.w3.org/2000/svg" width="158" height="158" fill="none" viewBox="0 0 158 158"><path fill="#0C0C4F" stroke="#EC796B" stroke-width="4" d="M2 78.999c0 42.526 34.473 76.999 76.999 76.999S156 121.524 156 78.998C156 36.474 121.525 2 78.999 2S2 36.473 2 78.999Z"/><path fill="#FAFAFA" fill-rule="evenodd" d="m44.154 60.388 1.95-6.025a3.94 3.94 0 0 1 2.594-2.555l6.054-1.862c.838-.256.845-1.438.014-1.708l-6.027-1.95a3.95 3.95 0 0 1-2.555-2.593l-1.86-6.054c-.256-.836-1.438-.845-1.708-.012l-1.95 6.025a3.95 3.95 0 0 1-2.593 2.555l-6.055 1.86c-.838.258-.847 1.438-.013 1.707l6.027 1.95a3.95 3.95 0 0 1 2.555 2.596l1.86 6.052c.255.838 1.438.847 1.707.014" clip-rule="evenodd"/><path fill="#EC796B" fill-rule="evenodd" d="M139.848 56.881c-2.496-2.791-6.391-4.362-10.178-5.007-3.817-.619-7.82-.561-11.588.108-7.625 1.29-14.552 4.447-20.594 8.342-3.137 1.912-5.813 4.123-8.585 6.376-1.336 1.14-2.553 2.352-3.822 3.548l-3.465 3.448c-3.765 3.936-7.476 7.52-11.067 10.492-3.605 2.957-6.976 5.204-10.298 6.772-3.32 1.577-6.872 2.505-11.501 2.653-4.59.162-10.02-.666-15.827-2.034-5.84-1.36-11.97-3.3-18.823-4.97 2.391 6.632 5.991 12.494 10.614 17.852 4.676 5.265 10.516 10.063 18.017 13.219 7.394 3.226 16.685 4.384 25.372 2.637 8.71-1.677 16.354-5.707 22.533-10.369 6.194-4.709 11.206-10.073 15.431-15.65a106 106 0 0 0 2.627-3.607l2.333-3.456c1.621-2.137 3.097-4.57 4.701-6.689 3.146-4.435 6.248-8.865 9.852-12.946 1.814-2.07 3.727-4.05 5.985-5.953a31.4 31.4 0 0 1 3.691-2.657 17.5 17.5 0 0 1 4.592-2.109" clip-rule="evenodd"/><path fill="#FAFAFA" fill-rule="evenodd" d="M139.848 56.88c-2.681-6.765-7.666-12.46-14.357-16.663-6.65-4.157-15.886-6.278-25.039-4.47a41 41 0 0 0-12.746 4.8c-3.827 2.233-7.256 4.922-10.225 7.805-1.482 1.447-2.827 2.956-4.163 4.474l-3.464 4.416-5.35 7.11c-6.82 9.146-14.165 19.865-26.218 23.04-11.832 3.119-16.964.357-24.186-.783 1.32 3.409 2.957 6.72 5.174 9.632 2.176 2.971 4.746 5.762 7.942 8.155 1.615 1.149 3.32 2.283 5.213 3.245a36 36 0 0 0 6.088 2.362c4.316 1.183 9.175 1.598 13.88.961 4.707-.628 9.206-2.119 13.139-4.1 3.961-1.963 7.412-4.353 10.494-6.875 6.125-5.087 10.89-10.708 14.914-16.389a116 116 0 0 0 5.562-8.63l2-3.446a86 86 0 0 1 1.858-2.966c2.535-3.793 5.014-6.834 8.025-9.117 2.969-2.342 7.104-4.072 12.629-4.474 5.502-.406 11.854.345 18.83 1.914" clip-rule="evenodd"/><path fill="#EC796B" fill-rule="evenodd" d="M110.081 113.097c0 4.97 4.031 9 9 9s8.995-4.03 8.995-9-4.025-9-8.995-9-9 4.031-9 9" clip-rule="evenodd"/></svg>
